X:43
T:Arneâ€™s Jig. JBi.42
T:Aronâ€™s Maggot,aka. JBi.42
M:C|
L:1/8
Q:1/4=150
C:Thomas Arne? 1710-1778
S:James Biggins MS, Leeds, 1779.
R:.Reel
O:England
A:Yorkshire
N:Very like Aronâ€™s Maggot from Vickerâ€™s Ms 1770, Aron =Thomas Arne? 1710
N:- 78 composer, perhaps. . This is a reel despite Mr Arne calling it
N:variously a jig and a maggot. (thats just me being peevish). CGP
Z:vmp.Nick Barber & Chris Partington
K:G
G2BG (B/c/d) BG|F2AF (A/B/c) AF|\
G2BG (B/c/d) gB|cAdB|G/G/GG2:|!
|:d|g2bg afed|e2f2gagd|g2bg afed|(e/f/g) (f/g/a)Tg3B|!
ceAc BdGB|Aagf edcB|ceAc BdGB|(A/B/c) AFG4:|

